other/yourbatterydrainer.svg

<svg xmlns="http://www.w3.org/2000/svg" viewBox="0 0 48 48"><defs><style>.a{fill:none;stroke:#fff;stroke-linecap:round;stroke-linejoin:round;}</style></defs>
  <path class="a"
     d="M 16.8284 6.51566 L 39.8382 25.7455 C 40.4122 26.2583 40.429 26.9423 39.8275 27.6132 L 30.3932 38.9019 C 29.8508 39.4197 29.1654 39.1812 28.6941 38.7873 L 5.73233 19.5975 C 5.21431 19.1613 5.16594 18.518 5.5824 17.9221 L 15.0568 6.5853 C 15.7353 5.94117 16.2826 6.01877 16.8284 6.51566 Z"
  />
  <path class="a"
     d="M 17.4723 10.2358 L 20.6908 12.9256 L 12.8624 22.2928 L 9.64389 19.603 Z" />
  <path class="a"
     d="M 22.7044 14.5676 L 25.9229 17.2574 L 18.0945 26.6246 L 14.876 23.9348 Z" />
  <path class="a"
     d="M 27.9806 18.8955 L 31.1991 21.5852 L 23.3707 30.9525 L 20.1522 28.2627 Z" />
  <path class="a"
     d="M 37.5872 30.3914 L 40.0851 32.479 L 35.2275 38.2915 L 32.7295 36.2039 Z" />
</svg>

<?xml version="1.0" encoding="UTF-8"?>
<svg viewBox="0 0 48 48" xmlns="http://www.w3.org/2000/svg">
<defs>
<style>.a{fill:none;stroke:#fff;stroke-linecap:round;stroke-linejoin:round;}</style>
</defs>
<path class="a" d="m16.828 6.5157 23.01 19.23c0.574 0.5128 0.5908 1.1968-0.0107 1.8677l-9.4343 11.289c-0.5424 0.5178-1.2278 0.2793-1.6991-0.1146l-22.962-19.19c-0.51802-0.4362-0.56639-1.0795-0.14993-1.6754l9.4744-11.337c0.6785-0.64413 1.2258-0.56653 1.7716-0.06964z"/>
<path class="a" d="m17.472 10.236 3.2185 2.6898-7.8284 9.3672-3.2185-2.6898z"/>
<path class="a" d="m22.704 14.568 3.2185 2.6898-7.8284 9.3672-3.2185-2.6898z"/>
<path class="a" d="m27.981 18.896 3.2185 2.6897-7.8284 9.3673-3.2185-2.6898z"/>
<path class="a" d="m37.587 30.391 2.4979 2.0876-4.8576 5.8125-2.498-2.0876z"/>
</svg>
